docs/images/icons/pdf.svg

<svg width="65.000000" height="65.000000" viewBox="0 0 65 65" fill="none" xmlns="http://www.w3.org/2000/svg" xmlns:xlink="http://www.w3.org/1999/xlink">
	<desc>
			Created with Pixso.
	</desc>
	<defs/>
	<path id="Exclude" d="M58.71 65L6.29004 65C2.83105 65 0 61.948 0 58.2175L0 6.78247C0 3.052 2.83105 0 6.29004 0L58.71 0C62.1699 0 65 3.052 65 6.78247L65 58.2175C65 61.948 62.1699 65 58.71 65ZM51.709 23.3271L51.4189 23.3271L51.709 23.2864C51.6719 22.9956 51.541 22.7246 51.3379 22.5137L39.248 10.4299C39.1807 10.3621 39.1074 10.3015 39.0273 10.2498L38.9688 10.2148C38.9072 10.1768 38.8428 10.1418 38.7773 10.1104L38.6729 10.0813C38.6182 10.0579 38.5625 10.0403 38.5039 10.0291C38.4102 10.0105 38.3154 10.0007 38.2197 10L18.8154 10C18.4307 10 18.0615 10.1531 17.7891 10.4253C17.5166 10.6978 17.3633 11.0671 17.3633 11.4524L17.3633 27.0684C17.3633 27.4536 17.5166 27.823 17.7891 28.0955C18.0615 28.3679 18.4307 28.5208 18.8154 28.5208C19.2012 28.5208 19.5703 28.3679 19.8428 28.0955C20.1152 27.823 20.2676 27.4536 20.2676 27.0684L20.2676 12.9221L36.7676 12.9221L36.7676 23.4607C36.7686 23.8445 36.9219 24.2122 37.1924 24.4839C37.4629 24.7559 37.8301 24.9102 38.2139 24.9131L48.8223 24.9712L48.8223 53.0952L20.2676 53.0952L20.2676 50.8469C20.2676 50.4617 20.1152 50.0923 19.8428 49.8198C19.5703 49.5476 19.2012 49.3945 18.8154 49.3945C18.4307 49.3945 18.0615 49.5476 17.7891 49.8198C17.5166 50.0923 17.3633 50.4617 17.3633 50.8469L17.3633 54.5476C17.3633 54.9329 17.5166 55.3022 17.7891 55.5747C18.0615 55.8469 18.4307 56 18.8154 56L50.2744 56C50.6592 56 51.0293 55.8469 51.3018 55.5747C51.5742 55.3022 51.7266 54.9329 51.7266 54.5476L51.7266 23.5247C51.7266 23.4585 51.7207 23.3923 51.709 23.3271ZM39.6719 22.0142L39.6719 14.9788L46.748 22.0491L39.6719 22.0142ZM14.4521 30.2637L43.7852 30.2637C44.1699 30.2637 44.5391 30.4165 44.8115 30.689C45.084 30.9614 45.2373 31.3308 45.2373 31.7161L45.2373 46.1992C45.2373 46.5845 45.084 46.9539 44.8115 47.2261C44.5391 47.4985 44.1699 47.6516 43.7852 47.6516L14.4521 47.6516C14.0674 47.6516 13.6982 47.4985 13.4258 47.2261C13.1533 46.9539 13 46.5845 13 46.1992L13 31.7161C13 31.3308 13.1533 30.9614 13.4258 30.689C13.6982 30.4165 14.0674 30.2637 14.4521 30.2637ZM31.8574 42.0046C32.1104 41.6001 32.2822 41.1501 32.3633 40.6802C32.4678 40.0737 32.5156 39.4592 32.5088 38.8442C32.5205 38.2405 32.4727 37.6372 32.3633 37.0432C32.2715 36.6003 32.085 36.1821 31.8174 35.8174C31.54 35.4524 31.1533 35.1855 30.7129 35.0564C30.1475 34.8921 29.5596 34.8157 28.9707 34.8298L26.1416 34.8298L26.1416 43.126L28.9531 43.126C29.5635 43.1438 30.1738 43.0554 30.7539 42.8645C31.2051 42.7041 31.5918 42.4026 31.8574 42.0046ZM23.3994 40.606C23.7812 40.4709 24.1309 40.259 24.4277 39.9829C24.9678 39.3633 25.2412 38.5552 25.1885 37.7346C25.1885 35.8118 24.1895 34.8298 22.208 34.8298L19.1289 34.8298L19.1289 43.126L20.9766 43.126L20.9766 40.7673L22.208 40.7673C22.6123 40.7957 23.0176 40.7407 23.3994 40.606ZM35.5879 36.4565L39.1143 36.4565L39.1143 34.8298L33.7402 34.8298L33.7402 43.126L35.5879 43.126L35.5879 40.2676L38.4922 40.2676L38.4922 38.635L35.5879 38.635L35.5879 36.4565ZM22.1963 36.4333L20.9766 36.4333L20.9766 39.158L22.1963 39.158C22.9521 39.158 23.3232 38.6934 23.3232 37.7346C23.3613 37.3799 23.2705 37.0232 23.0684 36.7297C22.9521 36.6204 22.8154 36.5376 22.665 36.4863C22.5146 36.4353 22.3545 36.4172 22.1963 36.4333ZM29.8818 36.5786C30.0879 36.6462 30.2598 36.7925 30.3584 36.9854C30.4736 37.2043 30.5459 37.4426 30.5732 37.6882C30.6074 38.0437 30.623 38.4004 30.6201 38.7573L30.6201 39.803C30.6172 40.2612 30.4688 40.7068 30.1963 41.0752C30.0322 41.2275 29.8389 41.3438 29.6279 41.4158C29.417 41.4878 29.1924 41.5144 28.9697 41.4937L27.9883 41.4937L27.9883 36.4568L28.9697 36.4568C29.2793 36.4458 29.5869 36.4868 29.8818 36.5786Z" clip-rule="evenodd" fill="#212121" fill-opacity="1.000000" fill-rule="evenodd"/>
</svg>

<svg width="65" height="65" fill="none" xmlns="http://www.w3.org/2000/svg"><path d="M58.71 65H6.29C2.831 65 0 61.948 0 58.218V6.782C0 3.052 2.831 0 6.29 0h52.42C62.17 0 65 3.052 65 6.782v51.435C65 61.949 62.17 65 58.71 65Zm-7.001-41.673h-.29l.29-.04a1.364 1.364 0 0 0-.371-.773L39.248 10.43a1.319 1.319 0 0 0-.22-.18l-.06-.035a2.071 2.071 0 0 0-.19-.105l-.105-.029a.817.817 0 0 0-.17-.052A1.514 1.514 0 0 0 38.22 10H18.815a1.452 1.452 0 0 0-1.452 1.452v15.616a1.453 1.453 0 0 0 2.905 0V12.922h16.5v10.539a1.456 1.456 0 0 0 1.446 1.452l10.608.058v28.124H20.268v-2.248a1.452 1.452 0 1 0-2.905 0v3.7A1.453 1.453 0 0 0 18.815 56h31.46a1.455 1.455 0 0 0 1.452-1.452V23.525a1.12 1.12 0 0 0-.018-.198Zm-12.037-1.313V14.98l7.076 7.07-7.076-.035Zm-25.22 8.25h29.333a1.451 1.451 0 0 1 1.452 1.452V46.2a1.452 1.452 0 0 1-1.452 1.453H14.452A1.452 1.452 0 0 1 13 46.199V31.716a1.452 1.452 0 0 1 1.452-1.452Zm17.405 11.74a3.67 3.67 0 0 0 .506-1.324 10.15 10.15 0 0 0 .146-1.836 8.98 8.98 0 0 0-.146-1.8 3.155 3.155 0 0 0-.546-1.227 2.145 2.145 0 0 0-1.104-.76 5.752 5.752 0 0 0-1.742-.227h-2.83v8.296h2.812c.61.018 1.22-.07 1.8-.261a2.22 2.22 0 0 0 1.104-.86ZM23.4 40.607a2.958 2.958 0 0 0 1.029-.623c.54-.62.813-1.428.76-2.248 0-1.923-.998-2.905-2.98-2.905h-3.08v8.296h1.849v-2.359h1.231c.404.029.81-.026 1.191-.161Zm12.189-4.15h3.526V34.83H33.74v8.296h1.848v-2.858h2.904v-1.633h-2.904v-2.178Zm-13.392-.023h-1.22v2.725h1.22c.756 0 1.127-.465 1.127-1.423a1.492 1.492 0 0 0-.255-1.005 1.112 1.112 0 0 0-.872-.297Zm7.686.146a.824.824 0 0 1 .476.406c.116.22.188.458.215.703.034.356.05.712.047 1.07v1.045a2.163 2.163 0 0 1-.424 1.272 1.591 1.591 0 0 1-1.226.419h-.982v-5.037h.982c.31-.011.617.03.912.122Z" clip-rule="evenodd" fill="#212121" fill-rule="evenodd"/></svg>
